rospo-icon-theme-classic-common/32x32/places/folder-teal-git.svg

<svg height="32" width="32" xmlns="http://www.w3.org/2000/svg"><rect height="16" opacity=".2" rx="1.25" width="25" x="3" y="12"/><path d="m3 21.75c0 .692.5575 1.25 1.25 1.25h22.5c.692 0 1.25-.558 1.25-1.25v-13.5c0-.6925-.558-1.25-1.25-1.25h-12.75v-.75c0-.6925-.557-1.25-1.25-1.25h-8.5c-.6925 0-1.25.5575-1.25 1.25" fill="#12806a"/><rect height="16" opacity=".2" rx="1.25" width="25" x="3" y="10"/><rect fill="#e4e4e4" height="10" rx="1.25" width="21" x="5" y="9"/><rect fill="#16a085" height="16" rx="1.25" width="25" x="3" y="11"/><path d="m4.25 5c-.6925 0-1.25.5575-1.25 1.25v1c0-.6925.5575-1.25 1.25-1.25h8.5c.693 0 1.25.5575 1.25 1.25v.75h12.75c.692 0 1.25.5575 1.25 1.25v-1c0-.6925-.558-1.25-1.25-1.25h-12.75v-.75c0-.6925-.557-1.25-1.25-1.25z" fill="#fff" opacity=".1"/><path d="m12.707 12.996-.707.707 1.152 1.152a1.5 1.5 0 0 0 -.148.645 1.5 1.5 0 0 0 1 1.412v4.176a1.5 1.5 0 0 0 -1 1.412 1.5 1.5 0 0 0 1.5 1.5 1.5 1.5 0 0 0 1.5-1.5 1.5 1.5 0 0 0 -1-1.412v-4.176a1.5 1.5 0 0 0  .145-.06l2.004 2.003a1.5 1.5 0 0 0 -.148.645 1.5 1.5 0 0 0 1.5 1.5 1.5 1.5 0 0 0 1.5-1.5 1.5 1.5 0 0 0 -1.5-1.5 1.5 1.5 0 0 0 -.645.148l-2.004-2.003a1.5 1.5 0 0 0  .149-.645 1.5 1.5 0 0 0 -1.5-1.5 1.5 1.5 0 0 0 -.645.149l-1.152-1.153z" fill="#08382e"/></svg>

<svg xmlns="http://www.w3.org/2000/svg" width="32" height="32" version="1">
 <rect style="opacity:0.2" width="25" height="16" x="3" y="12" rx="1.25" ry="1.25"/>
 <path style="fill:#12806a" d="M 3,21.75 C 3,22.442 3.5575,23 4.25,23 H 26.75 C 27.442,23 28,22.442 28,21.75 V 8.25 C 28,7.5575 27.442,7 26.75,7 H 14 V 6.25 C 14,5.5575 13.443,5 12.75,5 H 4.25 C 3.5575,5 3,5.5575 3,6.25"/>
 <rect style="opacity:0.2" width="25" height="16" x="3" y="10" rx="1.25" ry="1.25"/>
 <rect style="fill:#dcdcdc" width="21" height="10" x="5" y="9" rx="1.25" ry="1.25"/>
 <rect style="fill:#16a085" width="25" height="16" x="3" y="11" rx="1.25" ry="1.25"/>
 <path style="opacity:0.1;fill:#ffffff" d="M 4.25 5 C 3.5575 5 3 5.5575 3 6.25 L 3 7.25 C 3 6.5575 3.5575 6 4.25 6 L 12.75 6 C 13.443 6 14 6.5575 14 7.25 L 14 8 L 26.75 8 C 27.442 8 28 8.5575 28 9.25 L 28 8.25 C 28 7.5575 27.442 7 26.75 7 L 14 7 L 14 6.25 C 14 5.5575 13.443 5 12.75 5 L 4.25 5 z"/>
 <path style="fill:#08382e" d="M 12.707,12.996 12,13.703 13.152,14.855 A 1.5,1.5 0 0 0 13.004,15.5 1.5,1.5 0 0 0 14.004,16.912 V 21.088 A 1.5,1.5 0 0 0 13.004,22.5 1.5,1.5 0 0 0 14.504,24 1.5,1.5 0 0 0 16.004,22.5 1.5,1.5 0 0 0 15.004,21.088 V 16.912 A 1.5,1.5 0 0 0 15.149,16.852 L 17.153,18.855 A 1.5,1.5 0 0 0 17.005,19.5 1.5,1.5 0 0 0 18.505,21 1.5,1.5 0 0 0 20.005,19.5 1.5,1.5 0 0 0 18.505,18 1.5,1.5 0 0 0 17.86,18.148 L 15.856,16.145 A 1.5,1.5 0 0 0 16.005,15.5 1.5,1.5 0 0 0 14.505,14 1.5,1.5 0 0 0 13.86,14.149 L 12.708,12.996 Z"/>
</svg>
